X: 182
T: Magnificat Quarti toni
N: Derived from Rue2032-Magnificat_Quarti_toni.krn
C: Pierre de la Rue
%%abc-version 2.0
%%abcx-abcm2ps-target-version 5.9.1 (29 Sep 2008)
%%abc-creator hum2abc beta
%%abcx-conversion-date 2019/02/17 08:01:17
%%abc-edited-by Jesse Rodin
%%abc-edited-by Joel Chapman 2012/1/19
%%abcx-initial-encoding-date 2012/01/19/
%%humdrum-veritas 1667927562
%%humdrum-veritas-data 2193164814
%%linebreak <none>
%%barnumbers 0
L: 1/4
M: 2/1
Q: 1/2=120
%%staves [1 2 3 4]
V: 1 clef=treble
V: 2 clef=treble-8
V: 3 clef=treble-8
V: 4 clef=bass
K: C
[V:1] A8- | 
[V:2] e4d2f2- | 
[V:3] A4D2A2- | 
[V:4] z8 | 
[V:1] A4A4 | 
[V:2] fee4d2 | 
[V:3] A2G2F4 | 
[V:4] z8 | 
[V:1] G8 | 
[V:2] e3dB2c2- | 
[V:3] E8- | 
[V:4] z8 | 
[V:1] A8 | 
[V:2] c2A4c2- | 
[V:3] E8 | 
[V:4] A,,8- | 
[V:1] c8 | 
[V:2] cBAGF3E | 
[V:3] z8 | 
[V:4] A,,4A,,4 | 
[V:1] B8 | 
[V:2] G8 | 
[V:3] z8 | 
[V:4] G,,8 | 
[V:1] A4z2A2- | 
[V:2] E4e4- | 
[V:3] A8- | 
[V:4] A,,8 | 
[V:1] A2G2F4 | 
[V:2] e4d4 | 
[V:3] A4A4 | 
[V:4] C,4D,4 | 
[V:1] E4z2c2- | 
[V:2] B4c4- | 
[V:3] G8 | 
[V:4] E,4C,4 | 
[V:1] cBA4GF | 
[V:2] c4A4 | 
[V:3] A8 | 
[V:4] F,8 | 
[V:1] E3FG2A2- | 
[V:2] G6E2 | 
[V:3] c8 | 
[V:4] C,8 | 
[V:1] A2^G^FG4 | 
[V:2] F4E4- | 
[V:3] B8 | 
[V:4] D,4E,4 | 
[V:1] A4z2F2 | 
[V:2] E4F4 | 
[V:3] A8 | 
[V:4] A,,4D,4 | 
[V:1] G2E2FEF2- | 
[V:2] C4F4 | 
[V:3] G4A4 | 
[V:4] E,4D,4 | 
[V:1] FEDCD4 | 
[V:2] D8 | 
[V:3] F8 | 
[V:4] A,8 | 
[V:1] E4z2E2- | 
[V:2] A4c4 | 
[V:3] E8- | 
[V:4] A,,8 | 
[V:1] E2DCB,4 | 
[V:2] B4G3A | 
[V:3] E8- | 
[V:4] z8 | 
[V:1] G,3A,B,2C2 | 
[V:2] B2c2B2e2- | 
[V:3] E8- | 
[V:4] z8 | 
[V:1] B,2E3DE2- | 
[V:2] e2dcB2c2- | 
[V:3] E8- | 
[V:4] z8 | 
[V:1] E2DCB,4 | 
[V:2] c2BA^G4 | 
[V:3] E8- | 
[V:4] z8 | 
[V:1] A,8 ||  
[V:2] A8 ||  
[V:3] E8 ||  
[V:4] A,,8 ||  
[V:1]  [K:C] [M:2/1]A8 | 
[V:2]  [K:C] [M:2/1]z2A2c2d2 | 
[V:3]  [K:C] [M:2/1]z8 | 
[V:4]  [K:C] [M:2/1]A,8 | 
[V:1] G8 | 
[V:2] e4z2B2 | 
[V:3] z2B2c2d2 | 
[V:4] E,8- | 
[V:1] G8 | 
[V:2] c2d2e4 | 
[V:3] e2dcB4 | 
[V:4] E,8 | 
[V:1] A8 | 
[V:2] e6f2- | 
[V:3] A3Bc2d2- | 
[V:4] z8 | 
[V:1] A4A4 | 
[V:2] f2edc2f2- | 
[V:3] d2f2e2d2 | 
[V:4] z8 | 
[V:1] A8 | 
[V:2] feg4^f2 | 
[V:3] c2e4dc | 
[V:4] A,8 | 
[V:1] z4B4 | 
[V:2] g4z4 | 
[V:3] B3cd4 | 
[V:4] G,8 | 
[V:1] G2B3AGF | 
[V:2] d8 | 
[V:3] z8 | 
[V:4] G,8 | 
[V:1] E3FE2A2- | 
[V:2] c8 | 
[V:3] z8 | 
[V:4] A,8 | 
[V:1] A2GFE4 | 
[V:2] c8 | 
[V:3] z8 | 
[V:4] A,4A,4 | 
[V:1] D4z2A2 | 
[V:2] d8 | 
[V:3] A8 | 
[V:4] D,8 | 
[V:1] B4c2d2- | 
[V:2] d4d4 | 
[V:3] G8 | 
[V:4] z8 | 
[V:1] d2c4B2 | 
[V:2] d8 | 
[V:3] G8 | 
[V:4] z8 | 
[V:1] c3BA2GF | 
[V:2] c8 | 
[V:3] A8 | 
[V:4] F,6E,D, | 
[V:1] E2FEFGA2- | 
[V:2] z8 | 
[V:3] A4A4 | 
[V:4] C,2D,3E,F,2- | 
[V:1] A2G4^F2 | 
[V:2] z4d4 | 
[V:3] A8 | 
[V:4] F,E,C,2D,4 | 
[V:1] G6FE | 
[V:2] B4c4 | 
[V:3] G8 | 
[V:4] E,8 | 
[V:1] F2D2F3G | 
[V:2] d4D3E | 
[V:3] A4z2D2- | 
[V:4] D,4z4 | 
[V:1] A6G2- | 
[V:2] FGABcde2- | 
[V:3] DEFGABc2- | 
[V:4] z8 | 
[V:1] G2F2E4 | 
[V:2] e2d4^c2 | 
[V:3] c2d2A4 | 
[V:4] z8 | 
[V:1] D4z4 | 
[V:2] d8 | 
[V:3] z4D3E | 
[V:4] z2D,3E,F,G, | 
[V:1] z4A,3B, | 
[V:2] z8 | 
[V:3] FGABcde2- | 
[V:4] A,4z2A,,2- | 
[V:1] CDEFGAB2- | 
[V:2] z8 | 
[V:3] e6d2- | 
[V:4] A,,B,,C,D,E,F,G,2- | 
[V:1] B2A4^G2 | 
[V:2] z2e3dcB | 
[V:3] d2c2B4 | 
[V:4] G,2A,2E,4 | 
[V:1] A4c4 | 
[V:2] c8 | 
[V:3] A4z4 | 
[V:4] A,,8 | 
[V:1] B3cB2G2- | 
[V:2] z8 | 
[V:3] G8 | 
[V:4] E,8 | 
[V:1] G2^FEF4 | 
[V:2] c8 | 
[V:3] A8 | 
[V:4] z8 | 
[V:1] G4z2G2- | 
[V:2] d8 | 
[V:3] B4B4 | 
[V:4] G,4G,3F, | 
[V:1] GEA4G2 | 
[V:2] e4e4 | 
[V:3] B8 | 
[V:4] E,3D,E,4 | 
[V:1] A2c4BA | 
[V:2] e8 | 
[V:3] A8 | 
[V:4] A,,8 | 
[V:1] G2B3cd2- | 
[V:2] d8 | 
[V:3] B8 | 
[V:4] z8 | 
[V:1] d2^cBc4 | 
[V:2] e8 | 
[V:3] A8 | 
[V:4] z8 | 
[V:1] d4z4 | 
[V:2] d8 | 
[V:3] z8 | 
[V:4] D,3E,F,2G,2- | 
[V:1] D3EF3G | 
[V:2] z8 | 
[V:3] z8 | 
[V:4] G,A,_B,4A,G, | 
[V:1] A2_B4AG | 
[V:2] d8- | 
[V:3] z8 | 
[V:4] F,2G,4F,E, | 
[V:1] F2_B3ABA | 
[V:2] d4d4 | 
[V:3] z8 | 
[V:4] D,2G,3F,G,F, | 
[V:1] _B2A2B2A2- | 
[V:2] d8 | 
[V:3] z8 | 
[V:4] G,2F,2G,2F,2- | 
[V:1] A2GFE2F2- | 
[V:2] z8 | 
[V:3] A8- | 
[V:4] F,2E,D,C,2D,2- | 
[V:1] F2EDC2F2 | 
[V:2] z8 | 
[V:3] A4A4 | 
[V:4] D,2C,B,,A,,2D,2- | 
[V:1] E4D4 | 
[V:2] z8 | 
[V:3] A8 | 
[V:4] D,2^C,2D,4- | 
[V:1] F3GA_BA2- | 
[V:2] d8 | 
[V:3] z8 | 
[V:4] D,4z4 | 
[V:1] A2G4^F2 | 
[V:2] c8 | 
[V:3] A8 | 
[V:4] z8 | 
[V:1] G4B2d2- | 
[V:2] d8 | 
[V:3] G8 | 
[V:4] z4G,4 | 
[V:1] d2cBA2c2- | 
[V:2] f8- | 
[V:3] A8 | 
[V:4] D,4F,4- | 
[V:1] c2B2A4 | 
[V:2] f8 | 
[V:3] c8- | 
[V:4] F,8 | 
[V:1] G4E2A2- | 
[V:2] e8 | 
[V:3] c8 | 
[V:4] C,8 | 
[V:1] A2GFGFED | 
[V:2] d8 | 
[V:3] B8 | 
[V:4] z8 | 
[V:1] C2c4BA | 
[V:2] e4c4 | 
[V:3] A8 | 
[V:4] z8 | 
[V:1] B2d2c2B2 | 
[V:2] d4e4 | 
[V:3] G4E4 | 
[V:4] z4G,4 | 
[V:1] A2c2B2A2- | 
[V:2] c4d4 | 
[V:3] F8 | 
[V:4] A,4D,4 | 
[V:1] A2^G^FG4 | 
[V:2] B8 | 
[V:3] E8- | 
[V:4] E,8 | 
[V:1] A8 ||  
[V:2] A8 ||  
[V:3] E8 ||  
[V:4] A,,8 ||  
[V:1]  [K:C] [M:2/1]A6G2- | 
[V:2]  [K:C] [M:2/1]A3Bcde2- | 
[V:3]  [K:C] [M:2/1]z8 | 
[V:4]  [K:C] [M:2/1]z8 | 
[V:1] G2F2E4 | 
[V:2] e2d4^c2 | 
[V:3] z8 | 
[V:4] z8 | 
[V:1] D4z4 | 
[V:2] d4D2F2- | 
[V:3] D3EFGA2- | 
[V:4] z8 | 
[V:1] z8 | 
[V:2] F2EDC4 | 
[V:3] A2G4^F2 | 
[V:4] A,,8 | 
[V:1] G3ABcd2- | 
[V:2] D6G2- | 
[V:3] G4GABc | 
[V:4] G,,8 | 
[V:1] d2c4B2 | 
[V:2] G4G4 | 
[V:3] d2e2d4 | 
[V:4] G,,8 | 
[V:1] c3BA2G2 | 
[V:2] E2F4ED | 
[V:3] c6B2 | 
[V:4] A,,8 | 
[V:1] F2EDC3D | 
[V:2] C2c3BA2 | 
[V:3] A2GFE3D | 
[V:4] A,,4A,,4 | 
[V:1] C2D4E2 | 
[V:2] G2A4B2 | 
[V:3] E2F4G2 | 
[V:4] z8 | 
[V:1] C4z4 | 
[V:2] A3Bc2A2- | 
[V:3] E8 | 
[V:4] A,,8 | 
[V:1] A3Bc2A2- | 
[V:2] A2GFE2F2- | 
[V:3] z8 | 
[V:4] A,,8 | 
[V:1] A2GFE2F2- | 
[V:2] F2EDC2c2- | 
[V:3] A3Bc2A2- | 
[V:4] A,,8 | 
[V:1] F2EDC3D | 
[V:2] c2BAA4 | 
[V:3] A2GFE3F | 
[V:4] A,,8 | 
[V:1] B,4z2E2 | 
[V:2] D6G2- | 
[V:3] G4B3A | 
[V:4] G,,8 | 
[V:1] D2G3FED | 
[V:2] G2D2G4 | 
[V:3] BAB6 | 
[V:4] G,,8 | 
[V:1] C2D4^C2 | 
[V:2] E2F2E4 | 
[V:3] A3GA4 | 
[V:4] A,,8 | 
[V:1] D4z4 | 
[V:2] D8 | 
[V:3] z2d2B2d2- | 
[V:4] B,,8 | 
[V:1] z8 | 
[V:2] z2d4cB | 
[V:3] dcBAG4 | 
[V:4] B,,8 | 
[V:1] z8 | 
[V:2] cBAGFEA2- | 
[V:3] A8 | 
[V:4] A,,8 | 
[V:1] z2d4cB | 
[V:2] A2^G^F^G4 | 
[V:3] z4D4 | 
[V:4] B,,8 | 
[V:1] cBAGFEA2- | 
[V:2] A4c4 | 
[V:3] E4A4 | 
[V:4] A,,8 | 
[V:1] A2^G^FG4 | 
[V:2] B8 | 
[V:3] E8 | 
[V:4] z8 | 
[V:1] A4z2A2- | 
[V:2] A4z2e2- | 
[V:3] F3EC2c2- | 
[V:4] z8 | 
[V:1] A2GFGFED | 
[V:2] e2dcdcBA | 
[V:3] c2BABAGF | 
[V:4] z8 | 
[V:1] CB,E4D2 | 
[V:2] G4A4 | 
[V:3] E2G2F4 | 
[V:4] z8 | 
[V:1] E4z2A2- | 
[V:2] c4A2c2- | 
[V:3] E8 | 
[V:4] A,,8 | 
[V:1] AGFEF4 | 
[V:2] cBAGA4 | 
[V:3] z8 | 
[V:4] A,,8 | 
[V:1] G3FE2D2 | 
[V:2] B3AG2F2 | 
[V:3] z8 | 
[V:4] G,,8 | 
[V:1] C2c3BA2- | 
[V:2] E4F4 | 
[V:3] A8 | 
[V:4] A,,8 | 
[V:1] A2GFE4 | 
[V:2] E4z2E2- | 
[V:3] A8 | 
[V:4] C,8 | 
[V:1] z2G3F/E/D2 | 
[V:2] E2DCD4 | 
[V:3] G8 | 
[V:4] B,,8 | 
[V:1] C4z2E2- | 
[V:2] E8 | 
[V:3] A8 | 
[V:4] A,,8 | 
[V:1] E2G4FE | 
[V:2] C3DE2F2 | 
[V:3] c8 | 
[V:4] z8 | 
[V:1] D4C4 | 
[V:2] G4E2e2- | 
[V:3] B4A4- | 
[V:4] z4A,,3B,, | 
[V:1] z2F2G2E2- | 
[V:2] e2dcB4 | 
[V:3] A4G4 | 
[V:4] C,2D,2E,2F,G, | 
[V:1] E2DCD4 | 
[V:2] c2A6 | 
[V:3] F8 | 
[V:4] A,4D,4 | 
[V:1] E8- | 
[V:2] B6G2- | 
[V:3] E8- | 
[V:4] G,6C,2 | 
[V:1] E8- | 
[V:2] G2c2B2c2- | 
[V:3] E8- | 
[V:4] C,3B,,G,,2A,,2- | 
[V:1] E8- | 
[V:2] cAB2c4 | 
[V:3] E8- | 
[V:4] A,,2G,,2A,,4 | 
[V:1] E8 ||  
[V:2] B8 ||  
[V:3] E8 ||  
[V:4] E,,8 & E,8 ||  
[V:1]  [K:C] [M:2/1]z8 | 
[V:2]  [K:C] [M:2/1]z8 | 
[V:3]  [K:C] [M:2/1]A8 | 
[V:4]  [K:C] [M:2/1]A,,6B,,2 | 
[V:1] z8 | 
[V:2] z8 | 
[V:3] G8- | 
[V:4] C,3D,B,,2E,2- | 
[V:1] z8 | 
[V:2] z8 | 
[V:3] G8 | 
[V:4] E,2D,C,B,,4 | 
[V:1] z8 | 
[V:2] e8 | 
[V:3] A4c4 | 
[V:4] A,,4A,4 | 
[V:1] z8 | 
[V:2] d8 | 
[V:3] B2A2B4 | 
[V:4] D,4G,4 | 
[V:1] A8 | 
[V:2] d8 | 
[V:3] z2A4GA | 
[V:4] F,3E,F,4 | 
[V:1] G8 | 
[V:2] e8 | 
[V:3] B3cB2c2- | 
[V:4] E,8- | 
[V:1] G8 | 
[V:2] e8 | 
[V:3] c2BAB4 | 
[V:4] E,8 | 
[V:1] A8 | 
[V:2] e4e4 | 
[V:3] A4z2c2 | 
[V:4] A,,8 | 
[V:1] A8 | 
[V:2] e8 | 
[V:3] A2c3BAG | 
[V:4] z8 | 
[V:1] A4A4 | 
[V:2] f8- | 
[V:3] F4F3G | 
[V:4] z4z2A,2 | 
[V:1] A8 | 
[V:2] f4f4 | 
[V:3] A2F2c2A2 | 
[V:4] F,2A,3G,F,E, | 
[V:1] z8 | 
[V:2] f4e4 | 
[V:3] d4c4 | 
[V:4] D,4z2A,2- | 
[V:1] z8 | 
[V:2] c3de2f2- | 
[V:3] z2A2B2c2- | 
[V:4] A,2F,2G,2A,2- | 
[V:1] A8 | 
[V:2] f2e4d2 | 
[V:3] cBAGA4 | 
[V:4] A,G,F,E,F,4 | 
[V:1] G8 | 
[V:2] e6d2 | 
[V:3] B8 | 
[V:4] E,8- | 
[V:1] G8 | 
[V:2] c4B2cB | 
[V:3] G4GFED | 
[V:4] E,4D,2C,2- | 
[V:1] A8 | 
[V:2] AGG4^F2 | 
[V:3] E2D4C2 | 
[V:4] C,2B,,2A,,4 | 
[V:1] B8- | 
[V:2] G2d2B2d2- | 
[V:3] D8 | 
[V:4] G,,8- | 
[V:1] B4B4 | 
[V:2] dcBAG4 | 
[V:3] z2d2B2d2- | 
[V:4] G,,8 | 
[V:1] B8 | 
[V:2] z2d4cB | 
[V:3] dcBAG3F | 
[V:4] G,,8 | 
[V:1] A8 | 
[V:2] c4B2A2- | 
[V:3] E6F2 | 
[V:4] A,,8 | 
[V:1] B8 | 
[V:2] A2GFG4 | 
[V:3] D4E4- | 
[V:4] z8 | 
[V:1] A8 | 
[V:2] A2c4BA | 
[V:3] E2C2E3F | 
[V:4] A,,8 | 
[V:1] z8 | 
[V:2] B3cd4 | 
[V:3] G2B6 | 
[V:4] G,,4B,,3C, | 
[V:1] z8 | 
[V:2] z2d2c2d2- | 
[V:3] A8 | 
[V:4] D,3E,F,4 | 
[V:1] A8 | 
[V:2] d2cBA2f2 | 
[V:3] z4z2d2 | 
[V:4] D,4z4 | 
[V:1] A8 | 
[V:2] e2f4ed | 
[V:3] c2d4cB | 
[V:4] z8 | 
[V:1] A8- | 
[V:2] e2z2z4 | 
[V:3] A3GE2F2- | 
[V:4] z2D,2C,2D,2- | 
[V:1] A8 | 
[V:2] z2d2c2A2 | 
[V:3] F2EDE3F | 
[V:4] D,2B,,2A,,4 | 
[V:1] z8 | 
[V:2] B3cd4 | 
[V:3] G4D3E | 
[V:4] G,,8 | 
[V:1] A8 | 
[V:2] A3Bc2d2 | 
[V:3] F3GA2B2 | 
[V:4] z8 | 
[V:1] A8 | 
[V:2] e2f4e2- | 
[V:3] c2A4G2 | 
[V:4] z8 | 
[V:1] A8 | 
[V:2] e2d2e4 | 
[V:3] F4E4- | 
[V:4] z4A,,3B,, | 
[V:1] z8 | 
[V:2] z8 | 
[V:3] E2F2G2A2 | 
[V:4] C,2D,2E,2F,2 | 
[V:1] z8 | 
[V:2] z8 | 
[V:3] B2c4BA | 
[V:4] D,2E,4D,C, | 
[V:1] z8 | 
[V:2] z4d4 | 
[V:3] G2A4^G2 | 
[V:4] B,,2A,,2B,,4 | 
[V:1] A8 | 
[V:2] c3defe2- | 
[V:3] A3Bcdc2- | 
[V:4] A,,4z4 | 
[V:1] G8 | 
[V:2] e2dcd4 | 
[V:3] c2BAB4 | 
[V:4] z8 | 
[V:1] A8 | 
[V:2] e8 | 
[V:3] A4z2c2- | 
[V:4] z4A,4- | 
[V:1] c8 | 
[V:2] z4z2c2 | 
[V:3] c2d2e2f2- | 
[V:4] A,8 | 
[V:1] B4A4- | 
[V:2] d2B2c4 | 
[V:3] f2e2f4 | 
[V:4] G,4F,4- | 
[V:1] A4G4 | 
[V:2] A2d3Gc2- | 
[V:3] z2F2G4 | 
[V:4] F,4E,4 | 
[V:1] F8 | 
[V:2] c2BAB4 | 
[V:3] A4F4 | 
[V:4] D,8 | 
[V:1] E8- | 
[V:2] c8 | 
[V:3] G4E3F | 
[V:4] C,8 | 
[V:1] E8- | 
[V:2] B4G2A2 | 
[V:3] G2A2B2c2- | 
[V:4] E,6A,,2- | 
[V:1] E8- | 
[V:2] c4B4 | 
[V:3] cBA4^G2 | 
[V:4] A,,B,,C,D,E,4 | 
[V:1] E8 ||  
[V:2] A8 ||  
[V:3] A8 ||  
[V:4] A,,8 ||  
[V:1]  [K:C] [M:2/1]A8 | 
[V:2]  [K:C] [M:2/1]z8 | 
[V:3]  [K:C] [M:2/1]A8- | 
[V:4]  [K:C] [M:2/1]z8 | 
[V:1] c4B2A2- | 
[V:2] z8 | 
[V:3] A4d2c2 | 
[V:4] z8 | 
[V:1] A2GFE4 | 
[V:2] z4A4- | 
[V:3] d4c4 | 
[V:4] z8 | 
[V:1] z8 | 
[V:2] A4c4 | 
[V:3] z8 | 
[V:4] A,,8 | 
[V:1] z8 | 
[V:2] B2A4GF | 
[V:3] z8 | 
[V:4] D,2C,2D,4 | 
[V:1] z8 | 
[V:2] EFGAB2c2- | 
[V:3] z2E2F2E2- | 
[V:4] C,4D,2A,,2 | 
[V:1] z2A2d4 | 
[V:2] cBA4^G2 | 
[V:3] E2F2D4 | 
[V:4] C,2D,2B,,4 | 
[V:1] c2A4GF | 
[V:2] A4z2F2 | 
[V:3] E4FGAB | 
[V:4] A,,4D,4 | 
[V:1] EFGABcB2- | 
[V:2] G2c2B4 | 
[V:3] cde4d2 | 
[V:4] C,4G,3F, | 
[V:1] B2A4^G2 | 
[V:2] z2e3de2 | 
[V:3] e2c2B4 | 
[V:4] G,2A,2E,4 | 
[V:1] A4G4- | 
[V:2] c3defe2- | 
[V:3] A4c4 | 
[V:4] F,4C,4 | 
[V:1] G8 | 
[V:2] e2d4^c2 | 
[V:3] B4G4 | 
[V:4] G,F,E,D,E,4 | 
[V:1] F8- | 
[V:2] d4A2d2- | 
[V:3] A4z4 | 
[V:4] D,8- | 
[V:1] F8 | 
[V:2] d2cBA4 | 
[V:3] z8 | 
[V:4] D,8 | 
[V:1] F4E2F2- | 
[V:2] z8 | 
[V:3] A8- | 
[V:4] D,4A,,2D,2- | 
[V:1] F2EDC3D | 
[V:2] z4z2c2- | 
[V:3] A8 | 
[V:4] D,2C,B,,A,,4 | 
[V:1] E2D4C2- | 
[V:2] c2B4A2 | 
[V:3] G4F2E2 | 
[V:4] C,2G,,2B,,2C,2 | 
[V:1] C2B,2C4 | 
[V:2] G8 | 
[V:3] D4CDEF | 
[V:4] G,,4C,4- | 
[V:1] z8 | 
[V:2] E4F2G2 | 
[V:3] G3AB2cB | 
[V:4] C,4D,2C,2- | 
[V:1] z8 | 
[V:2] E4F4 | 
[V:3] AGc4B2 | 
[V:4] C,2E,2D,4 | 
[V:1] z2C2E2F2 | 
[V:2] G8- | 
[V:3] c8 | 
[V:4] C,8 | 
[V:1] G3ABcd2- | 
[V:2] G8- | 
[V:3] e4d4 | 
[V:4] C,4G,,4- | 
[V:1] d2c4B2 | 
[V:2] G8 | 
[V:3] B2c2d4 | 
[V:4] G,,2C,2G,,4 | 
[V:1] c8 | 
[V:2] G4C3D | 
[V:3] c8 | 
[V:4] C,4z2C,2- | 
[V:1] z8 | 
[V:2] E3FG2A2 | 
[V:3] z8 | 
[V:4] C,2A,,2B,,2C,2 | 
[V:1] z8 | 
[V:2] B2c4BA | 
[V:3] z8 | 
[V:4] D,2E,4D,C, | 
[V:1] z2G2A2c2- | 
[V:2] G4z2E2 | 
[V:3] z2B2A2e2- | 
[V:4] B,,4z4 | 
[V:1] cBA4^G2 | 
[V:2] G2A2E4 | 
[V:3] edc2B4 | 
[V:4] z8 | 
[V:1] A6G2 | 
[V:2] F8- | 
[V:3] A8- | 
[V:4] z8 | 
[V:1] F2EDC2F2- | 
[V:2] F8 | 
[V:3] A8- | 
[V:4] z8 | 
[V:1] F2E4D2 | 
[V:2] D2E2F4 | 
[V:3] A8 | 
[V:4] z8 | 
[V:1] E8 | 
[V:2] E4G4 | 
[V:3] B8- | 
[V:4] z4E,4 | 
[V:1] z8 | 
[V:2] F2G4E2 | 
[V:3] B4c4 | 
[V:4] D,2E,4C,2 | 
[V:1] z8 | 
[V:2] F2E4D2 | 
[V:3] B2A4^G2 | 
[V:4] D,2A,,2B,,4 | 
[V:1] z4A4 | 
[V:2] E8 | 
[V:3] A4z4 | 
[V:4] A,,8 | 
[V:1] A2A2A4 | 
[V:2] z8 | 
[V:3] A4A2A2 | 
[V:4] z4A,,4 | 
[V:1] z4A4 | 
[V:2] E4E2E2 | 
[V:3] A4z4 | 
[V:4] A,,2A,,2A,,4 | 
[V:1] G4A4 | 
[V:2] E4e4- | 
[V:3] z8 | 
[V:4] z4A,,4- | 
[V:1] c6BA | 
[V:2] e2f3ec2 | 
[V:3] z4A4 | 
[V:4] A,,4z4 | 
[V:1] B4c3B | 
[V:2] d4c4 | 
[V:3] G4A4 | 
[V:4] z8 | 
[V:1] AGA2G2F2- | 
[V:2] e4d2c2- | 
[V:3] c4B2A2- | 
[V:4] z8 | 
[V:1] F2E4D2 | 
[V:2] c2B4A2 | 
[V:3] A2G2F4 | 
[V:4] z4D,4 | 
[V:1] E8- | 
[V:2] B8- | 
[V:3] E8- | 
[V:4] G,6E,2 | 
[V:1] E8 ||  
[V:2] B8 ||  
[V:3] E8 ||  
[V:4] E,8 ||  
[V:1]  [K:C] [M:2/1]A6G2 | 
[V:2]  [K:C] [M:2/1]z8 | 
[V:3]  [K:C] [M:2/1]A8 | 
[V:4]  [K:C] [M:2/1]z8 | 
[V:1] F4E2A2- | 
[V:2] z8 | 
[V:3] d4c4 | 
[V:4] z8 | 
[V:1] A2GFGFED | 
[V:2] z8 | 
[V:3] d4B4 | 
[V:4] z8 | 
[V:1] C4z4 | 
[V:2] A8- | 
[V:3] z2A2c4 | 
[V:4] z8 | 
[V:1] z2A,2C4 | 
[V:2] A8 | 
[V:3] d2e4dc | 
[V:4] z8 | 
[V:1] D2E4DC | 
[V:2] G8- | 
[V:3] B3AB4 | 
[V:4] z8 | 
[V:1] B,3A,B,4 | 
[V:2] G8 | 
[V:3] z8 | 
[V:4] z8 | 
[V:1] z8 | 
[V:2] A4c4 | 
[V:3] A8 | 
[V:4] z8 | 
[V:1] z8 | 
[V:2] B2cBcBe2- | 
[V:3] G8 | 
[V:4] E,8- | 
[V:1] z8 | 
[V:2] e2d4^c2 | 
[V:3] G8 | 
[V:4] E,8 | 
[V:1] z8 | 
[V:2] d4z2f2- | 
[V:3] A8 | 
[V:4] D,8- | 
[V:1] A8 | 
[V:2] f2edf4 | 
[V:3] z2A2d4 | 
[V:4] D,8 | 
[V:1] G8 | 
[V:2] e4z2B2 | 
[V:3] B2cBcBe2- | 
[V:4] E,8- | 
[V:1] G8 | 
[V:2] cBe6 | 
[V:3] e2dcB4 | 
[V:4] E,8 | 
[V:1] A6GF | 
[V:2] c3defe2 | 
[V:3] A8 | 
[V:4] A,,8- | 
[V:1] E2F2E4- | 
[V:2] c2d4c2 | 
[V:3] A3GA4- | 
[V:4] A,,8 | 
[V:1] E8 | 
[V:2] c4B2c2- | 
[V:3] A4G2A2- | 
[V:4] z8 | 
[V:1] E8 | 
[V:2] c2BAB2c2 | 
[V:3] A2GFG2A2 | 
[V:4] z8 | 
[V:1] G6AB | 
[V:2] B4E4 | 
[V:3] E4e4- | 
[V:4] z8 | 
[V:1] c4B2c2- | 
[V:2] A4G2A2- | 
[V:3] e4e4- | 
[V:4] z8 | 
[V:1] c2BAB2c2 | 
[V:2] A2GFG2A2 | 
[V:3] e4e4- | 
[V:4] z8 | 
[V:1] B2G2A2c2- | 
[V:2] E4F2E2 | 
[V:3] e4A2e2- | 
[V:4] z8 | 
[V:1] cBA4^G2 | 
[V:2] G2A2E4 | 
[V:3] edc2B4 | 
[V:4] z8 | 
[V:1] A8 | 
[V:2] z4e4- | 
[V:3] A8 | 
[V:4] z8 | 
[V:1] z8 | 
[V:2] e2d2c4 | 
[V:3] E6F2 | 
[V:4] z8 | 
[V:1] E6F2 | 
[V:2] B4c4 | 
[V:3] G4A4 | 
[V:4] z8 | 
[V:1] G4A4 | 
[V:2] z8 | 
[V:3] B2c4d2- | 
[V:4] z8 | 
[V:1] B2c4BA | 
[V:2] z2A2c2d2 | 
[V:3] d2e4dc | 
[V:4] z8 | 
[V:1] G2B3AG2- | 
[V:2] e4B2c2 | 
[V:3] B4G4 | 
[V:4] E,8 | 
[V:1] G2^FEF4 | 
[V:2] d8 | 
[V:3] A8 | 
[V:4] D,8 | 
[V:1] G8 | 
[V:2] B3cB4 | 
[V:3] G8 | 
[V:4] E,8 | 
[V:1] c6B2 | 
[V:2] A8 | 
[V:3] E8 | 
[V:4] A,,8 | 
[V:1] A4G2A2- | 
[V:2] c2d2e2f2- | 
[V:3] z8 | 
[V:4] z8 | 
[V:1] A2G2F4 | 
[V:2] f2e4d2 | 
[V:3] z2G2A2B2 | 
[V:4] z8 | 
[V:1] E8- | 
[V:2] edcBA2G2 | 
[V:3] c6B2 | 
[V:4] z8 | 
[V:1] E8- | 
[V:2] c4B2c2- | 
[V:3] A4G2A2- | 
[V:4] z8 | 
[V:1] E8 | 
[V:2] cBB4c2 | 
[V:3] AGE2G2A2 | 
[V:4] z8 | 
[V:1] D4E4 | 
[V:2] A4B4- | 
[V:3] F4E4 | 
[V:4] z8 | 
[V:1] z8 | 
[V:2] B8- | 
[V:3] G4F4 | 
[V:4] E,4D,4 | 
[V:1] z2G2A4 | 
[V:2] B4c4 | 
[V:3] G4E4 | 
[V:4] E,4A,,4 | 
[V:1] G3AB2c2- | 
[V:2] B2e2d2c2 | 
[V:3] E4G2A2 | 
[V:4] z8 | 
[V:1] c2B2c4 | 
[V:2] d4c2G2 | 
[V:3] G4C4- | 
[V:4] z8 | 
[V:1] z2G2A2G2- | 
[V:2] A2GEF2E2 | 
[V:3] C4c3B | 
[V:4] z8 | 
[V:1] GEF2E3F | 
[V:2] G2A2G2A2 | 
[V:3] c2d2B2c2 | 
[V:4] E,2D,2E,2A,,2 | 
[V:1] G2A4^G2 | 
[V:2] E2F2E4 | 
[V:3] B2A2B4 | 
[V:4] z8 | 
[V:1] A8 ||  
[V:2] E8 ||  
[V:3] A8 ||  
[V:4] A,,8 ||  
[V:1]  [K:C] [M:2/1]A8 | 
[V:2]  [K:C] [M:2/1]A6c2- | 
[V:3]  [K:C] [M:2/1]z8 | 
[V:4]  [K:C] [M:2/1]z8 | 
[V:1] G8 | 
[V:2] c4B2e2- | 
[V:3] z8 | 
[V:4] z8 | 
[V:1] G8 | 
[V:2] edB2cBAG | 
[V:3] z8 | 
[V:4] E,8 | 
[V:1] A4B2A2- | 
[V:2] F4z2f2- | 
[V:3] z8 | 
[V:4] D,8 | 
[V:1] A2G4^F2 | 
[V:2] fedcd4 | 
[V:3] A8 | 
[V:4] D,8 | 
[V:1] G8 | 
[V:2] B4z2e2- | 
[V:3] G8 | 
[V:4] E,8 | 
[V:1] z2G3AB2 | 
[V:2] e2dcB2e2- | 
[V:3] G8 | 
[V:4] E,3D,E,4 | 
[V:1] c4A2c2- | 
[V:2] e2e2f2e2- | 
[V:3] A8 | 
[V:4] z8 | 
[V:1] c2B4A2 | 
[V:2] edcBc4 | 
[V:3] A3GA4 | 
[V:4] z8 | 
[V:1] B4G4- | 
[V:2] B3cB2c2- | 
[V:3] z8 | 
[V:4] E,8 | 
[V:1] G4B3A | 
[V:2] c2BAG2g2- | 
[V:3] z8 | 
[V:4] E,8 | 
[V:1] B2c4BA | 
[V:2] gfe3dc2 | 
[V:3] z8 | 
[V:4] E,4E,4 | 
[V:1] G2A4^G2 | 
[V:2] B2c2B4 | 
[V:3] z8 | 
[V:4] E,8 | 
[V:1] A4z2c2 | 
[V:2] A4c2A2 | 
[V:3] A8 | 
[V:4] z8 | 
[V:1] A2c3BA2- | 
[V:2] c3de2f2- | 
[V:3] A8 | 
[V:4] z8 | 
[V:1] A2GFE2F2- | 
[V:2] f2edc4 | 
[V:3] A4A4 | 
[V:4] z8 | 
[V:1] F2EDF2E2- | 
[V:2] F4z2c2- | 
[V:3] A8 | 
[V:4] z8 | 
[V:1] E2D4C2 | 
[V:2] c2BAG4 | 
[V:3] z8 | 
[V:4] E,8 | 
[V:1] D2F3GA2- | 
[V:2] A4z2F2- | 
[V:3] z8 | 
[V:4] D,8 | 
[V:1] A2G4^F2 | 
[V:2] FEC2D4 | 
[V:3] A8 | 
[V:4] z8 | 
[V:1] G6FE | 
[V:2] d4B2d2- | 
[V:3] G8 | 
[V:4] z8 | 
[V:1] F4F4 | 
[V:2] d2cBA2B2- | 
[V:3] z8 | 
[V:4] D,8 | 
[V:1] G4GFED | 
[V:2] B2c2B2e2- | 
[V:3] G8 | 
[V:4] E,8 | 
[V:1] C4z2D2 | 
[V:2] e2dcdcBA | 
[V:3] A8 | 
[V:4] F,8 | 
[V:1] E3FG4 | 
[V:2] G8 | 
[V:3] B8 | 
[V:4] E,8 | 
[V:1] A2c3BA2- | 
[V:2] c4d4 | 
[V:3] A8 | 
[V:4] F,8 | 
[V:1] A2^G^FG4 | 
[V:2] e8- | 
[V:3] B8 | 
[V:4] E,8 | 
[V:1] A8 | 
[V:2] e8 | 
[V:3] A8 | 
[V:4] z8 | 
[V:1] z4z2E2 | 
[V:2] z2E2G3A | 
[V:3] z8 | 
[V:4] E,8 | 
[V:1] G3AB2c2 | 
[V:2] B2c2d2e2- | 
[V:3] z8 | 
[V:4] E,8 | 
[V:1] B2G3FE2- | 
[V:2] e2dcB2c2- | 
[V:3] z8 | 
[V:4] E,4E,4 | 
[V:1] E2DCB,4 | 
[V:2] c2BA^G4 | 
[V:3] z8 | 
[V:4] E,8 | 
[V:1] z2A,2C3D | 
[V:2] A4z2A2 | 
[V:3] A8 | 
[V:4] z8 | 
[V:1] E2F2G2A2- | 
[V:2] c3de2f2- | 
[V:3] A8 | 
[V:4] z8 | 
[V:1] A2GFE4 | 
[V:2] f2edc3d | 
[V:3] A4A4 | 
[V:4] z8 | 
[V:1] z2c4BA | 
[V:2] f2e4dc | 
[V:3] A8 | 
[V:4] z8 | 
[V:1] G8 | 
[V:2] B4c4 | 
[V:3] z8 | 
[V:4] E,8 | 
[V:1] z2d3cd2 | 
[V:2] d3cd2f2 | 
[V:3] A8 | 
[V:4] D,8 | 
[V:1] B2c3BAG | 
[V:2] e6c2 | 
[V:3] G8 | 
[V:4] E,4C,2E,2 | 
[V:1] F2G4^F2 | 
[V:2] d2e2d4 | 
[V:3] A8 | 
[V:4] D,2C,2D,4 | 
[V:1] G4z2G2- | 
[V:2] e8 | 
[V:3] c8 | 
[V:4] C,6E,2- | 
[V:1] G2A2B4 | 
[V:2] e4d4 | 
[V:3] B8 | 
[V:4] E,2F,2G,4 | 
[V:1] c4A2B2- | 
[V:2] c4d4 | 
[V:3] A8 | 
[V:4] A,4D,4 | 
[V:1] BA^G^FG4 | 
[V:2] B8 | 
[V:3] G4E4 | 
[V:4] E,8 | 
[V:1] A8- | 
[V:2] A8- | 
[V:3] F8 | 
[V:4] A,,8- | 
[V:1] A8 |]  
[V:2] A8 |]  
[V:3] E8 |]  
[V:4] A,,8 |]  



